actions/symbolic/zoom-original-symbolic.svg

<svg viewBox="0 0 16 16" xmlns="http://www.w3.org/2000/svg"><path d="m3 2c-.554 0-1 .446-1 1v10c0 .554.446 1 1 1h10c .554 0 1-.446 1-1v-10c0-.554-.446-1-1-1zm4 3h2v6h-2v-4h-1v-1s1 0 1-1z" fill="#bebebe"/></svg>

<svg xmlns="http://www.w3.org/2000/svg" viewBox="0 0 16 16">
  <defs id="defs3051">
    <style type="text/css" id="current-color-scheme">
      .ColorScheme-Text {
        color:#bebebe;
      }
      </style>
  </defs>
 <path 
       style="fill:currentColor;fill-opacity:1;stroke:none"
	 class="ColorScheme-Text"
        d="M 3 2 C 2.446 2 2 2.446 2 3 L 2 13 C 2 13.554 2.446 14 3 14 L 13 14 C 13.554 14 14 13.554 14 13 L 14 3 C 14 2.446 13.554 2 13 2 L 3 2 z M 7 5 L 9 5 L 9 11 L 7 11 L 7 7 L 6 7 L 6 6 C 6 6 7 6 7 5 z "
     />
</svg>
